X:335
T: Ducks Die at Christmas
T: B\'asaitear na Lachain L\'a Nollag
S: B.Breathnach:"Ceol Rince na hEireann" IV/68
Z: B.Black
L: 1/8
M: 12/8
Q: 360
R: jig
K: D
A2B d2e f2f fed|a2a agf ede fed|
ABc def g2g gab|afd e2d B3 d3 :|
fga agf gab bag|fga agf gee ede|
fga agf gab bag|afd e2d B3 d3 :|
